icons/cdf.svg

<!--
  - The MIT License (MIT)
  -
  - Copyright (c) 2015-2024 Elior "Mallowigi" Boukhobza
  -
  - Permission is hereby granted, free of charge, to any person obtaining a copy
  - of this software and associated documentation files (the "Software"), to deal
  - in the Software without restriction, including without limitation the rights
  - to use, copy, modify, merge, publish, distribute, sublicense, and/or sell
  - copies of the Software, and to permit persons to whom the Software is
  - furnished to do so, subject to the following conditions:
  -
  - The above copyright notice and this permission notice shall be included in all
  - copies or substantial portions of the Software.
  -
  - THE SOFTWARE IS PROVIDED "AS IS", WITHOUT WARRANTY OF ANY KIND, EXPRESS OR
  - IMPLIED, INCLUDING BUT NOT LIMITED TO THE WARRANTIES OF MERCHANTABILITY,
  - FITNESS FOR A PARTICULAR PURPOSE AND NONINFRINGEMENT. IN NO EVENT SHALL THE
  - AUTHORS OR COPYRIGHT HOLDERS BE LIABLE FOR ANY CLAIM, DAMAGES OR OTHER
  - LIABILITY, WHETHER IN AN ACTION OF CONTRACT, TORT OR OTHERWISE, ARISING FROM,
  - OUT OF OR IN CONNECTION WITH THE SOFTWARE OR THE USE OR OTHER DEALINGS IN THE
  - SOFTWARE.
  -
  -->

<svg version="1.1" xmlns="http://www.w3.org/2000/svg" viewBox="0 0 494 512" width="16px" height="16px">
  <path fill="#de2425" data-iconColor="Computable Document Format"
        d="M19.994463,128.0352325C62.1962662,43.9353981,157.7677002-59.2146606,327.2351379,41.8745728c-83.8010864,4.3500023-157.9025726,40.2897568-197.0521851,96.9725189c-57.389801,83.0918274-45.1819458,229.6215973,67.2280121,265.680481C-9.5111065,414.0619812-23.383009,214.477951,19.994463,128.0352325z M111.8596039,267.842804c0,0,6.0068359,114.7122803,107.3610992,134.3605347c96.578949-29.3035583,101.1047363-127.9688721,101.1047363-127.9688721C265.2603149,357.9341125,170.9704742,352.6237183,111.8596039,267.842804z M235.7461243,195.1629333c-25.3055878,10.539566-53.8610992,39.3188171-62.655838,55.6257477c5.4612427,38.2467804,41.0875549,66.8346405,84.5747833,47.9820404C211.2812653,305.5542297,194.7465973,229.1568146,235.7461243,195.1629333z M320.4185181,263.9661255c-9.9924622-45.3341675-45.2041016-65.0812531-84.6982117-48.4270782c47.5832825-1.6654205,62.3341064,69.4715729,23.3158264,102.3040314C281.2546997,307.9184875,302.0989685,291.6722717,320.4185181,263.9661255z M377.0101929,236.7460327c-4.2492371-31.6991577-22.1066589-112.4696808-103.1799927-126.0740509c-77.5995331,20.6061707-98.3327942,94.2358398-100.9967804,125.4197235C234.9295807,152.9832001,318.0501709,162.7324219,377.0101929,236.7460327z M295.1710205,108.4685898c130.84729,23.2148514,160.3934326,331.3391113-128.0334015,362.2922363c154.7656097,99.8941956,286.3887329,2.3095093,317.9730225-122.4055176C524.7779541,191.723175,412.6521606,97.9163895,295.1710205,108.4685898z"/>
</svg>

<svg xmlns="http://www.w3.org/2000/svg" viewBox="0 0 494 512"><path fill="#de2425" d="M19.994 128.035c42.202-84.1 137.774-187.25 307.241-86.16-83.8 4.35-157.902 40.29-197.052 96.972-57.39 83.092-45.182 229.622 67.228 265.68C-9.511 414.063-23.383 214.479 19.994 128.036m91.866 139.808s6.006 114.712 107.36 134.36c96.58-29.304 101.106-127.97 101.106-127.97-55.065 83.7-149.355 78.39-208.465-6.391m123.886-72.68c-25.305 10.54-53.861 39.319-62.656 55.626 5.462 38.246 41.088 66.834 84.575 47.982-46.384 6.783-62.918-69.614-21.919-103.608m84.673 68.803c-9.993-45.334-45.205-65.081-84.699-48.427 47.584-1.665 62.334 69.472 23.316 102.304 22.219-9.925 43.063-26.17 61.383-53.877m56.591-27.22c-4.249-31.7-22.106-112.47-103.18-126.074-77.6 20.606-98.333 94.236-100.997 125.42 62.097-83.109 145.217-73.36 204.177.654m-81.839-128.277c130.847 23.214 160.393 331.339-128.033 362.292 154.765 99.894 286.388 2.31 317.973-122.406 39.667-156.632-72.459-250.439-189.94-239.886" data-iconColor="Computable Document Format"/></svg>
